X: 5
T: The Wandering Minstrel
R: jig
M: 6/8
L: 1/8
K: Gmaj
B | A2D BAF | Ade fdB | A2d BAF | AFD E2B |
A2d BAF | Ade fdA | BdB AFD | EDB D2B :||
ABd ~f3 | efg fdB | ABd f2A | fdB ~B2d |
ABd ~f3 | efg fdA | BdB AFD EDB | D3 :||


Tune 2025	Setting 25917

